X: 5
T: REELS: Walter Sammon's Grandma Set
T: Walter Sammon's Grandmother
C: C: Trad.; S: ThZCh; Patrick Street / Martin Hayes / Mary Bergin
C: Set Leaders: Oliushka, Anton
Z: Anton Zille ed.; The Session
N: https://thesession.org/members/26966/sets/76523
R: Reel
M: 4/4
L: 1/8
Q: 1/2=100
K: Dmaj
FAAB A2dB|AFDE FEE2|FAAB A2dB|AFEG FDD2|
FAAB ABdB|AFDE FEE2|FAAB A2dB|AFEG FDD2||
FAdA BAdA|FAdA BEE2|FAdA BAdB|AFEG FDD2|
FAdA BAdA|FAdA BEE2|dcBA BcdB|AFEG FDD2||
T: Broken Pledge (D)
K: Ddor
dcAG ADDB|cAGF ECCE|D2 (3EFG Addc|AcGc Aefe|
dcAG FGAB|c2Bd cAGE|D2 (3EFG AddB|cAGE FDD2:|
|:dcAG Acde|~f3d ecAB|cAGE GAcd|ec~c2 eage|
dcAG Acde|fedf ecAG|~F3G AddB|cAGE FDD2:|
T: Blackhaired Lass
K: Amix
|:B|cAA2 cdec|d2gd BGGB|cA~A2 cdec|dfec A3:|
G|B/c/def ~g2eg|fddf gfed|B/c/def geag|fdec A2AG|
B/c/def gfeg|fddc defg|afg/f/e fdec|dfec A3||

